X:99
T:Lucy Campbell. RH.099
R:Strathspey
S:Rev.R.Harrison’s MS,c1815,Cumbria
O:England
A:Temple Sowerby,Cumbria
Z:vmp.Simon Wilson. Review PJH, 2008.
M:C|
L:1/8
Q:1/2=60
K:D
|:B|(A<D)(A<F) A<DA<F|A<DA<F BE-EF|\
A<DA<F d>efe|d>B {B}A>F ADD:|!
|:f|d>B A>F d>efe|d>B A>F eE-Ee|\
d>B A>F d>efe|d>B A>F ADD:|!
|:B|(A<D) (A/G/F) (A<D) (A/G/F)|A<D (A/G/F) B<EE>F|\
A<D (A/G/F) d>efe|d>B {B}A>F ADD:|!
|:f|d>fA>f d>fA>f|d>fA>f eEEe|d\
>fA>f d>efe|d>B A>F ADD:|!
|:B,|A,>D (F/E/D) A>D (F/E/D)|A,>D F/E/D BEE>F|\
A,>D (F/E/D) A>D F/E/D|d>B {B}A>F ADD:|!
|:f|a>baf d>efd|e>fd>f eEE>f|\
a>b a>f d>ef>e|d>B A>F ADD:|

